svg/fluentui-system-icons/ic_fluent_dual_screen_add_20_regular.svg

<svg width="20" height="20" viewBox="0 0 20 20" fill="none" xmlns="http://www.w3.org/2000/svg">
<path d="M19 5.5C19 7.98528 16.9853 10 14.5 10C12.0147 10 10 7.98528 10 5.5C10 3.01472 12.0147 1 14.5 1C16.9853 1 19 3.01472 19 5.5ZM15 3.5C15 3.22386 14.7761 3 14.5 3C14.2239 3 14 3.22386 14 3.5V5H12.5C12.2239 5 12 5.22386 12 5.5C12 5.77614 12.2239 6 12.5 6H14V7.5C14 7.77614 14.2239 8 14.5 8C14.7761 8 15 7.77614 15 7.5V6H16.5C16.7761 6 17 5.77614 17 5.5C17 5.22386 16.7761 5 16.5 5H15V3.5ZM17 16V10.4003C17.3578 10.2174 17.6929 9.99647 18 9.74284V16C18 17.1046 17.1046 18 16 18H4C2.89543 18 2 17.1046 2 16V8C2 6.89543 2.89543 6 4 6H9.02242C9.05337 6.34341 9.11588 6.67772 9.20703 7H4C3.44772 7 3 7.44772 3 8V16C3 16.5523 3.44772 17 4 17H9.5V7.79449C9.75187 8.34243 10.0912 8.84187 10.5 9.27494V17H16C16.5523 17 17 16.5523 17 16ZM6 15.5C6 15.2239 6.22386 15 6.5 15H7.5C7.77614 15 8 15.2239 8 15.5C8 15.7761 7.77614 16 7.5 16H6.5C6.22386 16 6 15.7761 6 15.5ZM12.5 15C12.2239 15 12 15.2239 12 15.5C12 15.7761 12.2239 16 12.5 16H13.5C13.7761 16 14 15.7761 14 15.5C14 15.2239 13.7761 15 13.5 15H12.5Z" fill="#212121"/>
</svg>

<svg xmlns="http://www.w3.org/2000/svg" width="20" height="20"><path d="M19 5.5a4.5 4.5 0 1 1-9 0 4.5 4.5 0 0 1 9 0Zm-4-2a.5.5 0 0 0-1 0V5h-1.5a.5.5 0 0 0 0 1H14v1.5a.5.5 0 0 0 1 0V6h1.5a.5.5 0 0 0 0-1H15V3.5ZM17 16v-5.6a5.507 5.507 0 0 0 1-.657V16a2 2 0 0 1-2 2H4a2 2 0 0 1-2-2V8a2 2 0 0 1 2-2h5.022a5.5 5.5 0 0 0 .185 1H4a1 1 0 0 0-1 1v8a1 1 0 0 0 1 1h5.5V7.794a5.51 5.51 0 0 0 1 1.48V17H16a1 1 0 0 0 1-1Zm-11-.5a.5.5 0 0 1 .5-.5h1a.5.5 0 0 1 0 1h-1a.5.5 0 0 1-.5-.5Zm6.5-.5a.5.5 0 0 0 0 1h1a.5.5 0 0 0 0-1h-1Z"/></svg>
